**kern	**kern
*staff2	*staff1
*clefF4	*clefG2
*k[]	*k[]
*M2/4	*M2/4
*C:	*C:
=331	=331
12AA-L	2r
12E-	.
12A-J	.
12AA-L	.
12E-	.
12A-J	.
=332	=332
12AA-L	4r
12E-	.
12A-J	.
12AA-L	8r
12E-	.
.	8c 8cc
12A-J	.
=333	=333
12AA-L	(4c 4cc
12E-	.
12A-J	.
12AA-L	4a-
12C	.
12A-J	.
=334	=334
12AA-L	4d- 4dd-
12F	.
12A-J	.
12r	4c 4cc
12AA-L	.
12A-J	.
=335	=335
12AA-L	4c 4cc
12E-	.
12A-J	.
12AA-L	4B- 4b-
12D-	.
12GJ	.
=336	=336
12AA-L	2A-) 2a-
12C	.
12E-J	.
12AA-L	.
12C	.
12E-J	.
=337	=337
12GGL	(4B- 4b-
12E-	.
12GJ	.
12AA-L	4c 4cc
12E-	.
12A-J	.
=338	=338
12FL	4d- 4dd-
12A-	.
12d-J	.
12E-L	4e- 4ee-
12A-	.
12cJ	.
=339	=339
12D-L	4f 4ff
12A-	.
12d-J	.
12FL	4d- 4dd-
12A-	.
12d-J	.
=340	=340
12E-L	2b-)
12G	.
12B-J	.
12E-L	.
12G	.
12B-J	.
=341	=341
*-	*-
